svg/emoji_u1f69b.svg

<?xml version="1.0" encoding="UTF-8"?>
<svg width="128" height="128" enable-background="new 0 0 128 128" xmlns="http://www.w3.org/2000/svg" xmlns:xlink="http://www.w3.org/1999/xlink"><linearGradient id="d" x1="22.854" x2="22.854" y1="70.75" y2="115.05" gradientUnits="userSpaceOnUse"><stop stop-color="#EF5350" offset=".0031768"/><stop stop-color="#EA4D4A" offset=".3272"/><stop stop-color="#DC3A3A" offset=".7789"/><stop stop-color="#D32F2F" offset="1"/></linearGradient><path d="M35.13,69h-8.07c-0.98,0-1.95,0.23-2.84,0.68l-13.39,6.73c-2.07,1.04-3.51,3.15-3.81,5.6 l-3.13,25.06C3,113.5,5.35,115,10.54,115H42v-5.2V76.23C42,70.69,42,69,35.13,69z" fill="url(#d)"/><path d="m29.41 74.83c0-0.81-0.85-1.33-1.57-0.97l-14.8 6.3c-1.32 0.66-2.23 2.01-2.43 3.56l-0.65 5.3c-0.08 0.65 0.43 1.22 1.08 1.22h17.29c0.6 0 1.09-0.49 1.09-1.09v-14.32z" fill="#546E7A"/><defs><path id="c" d="M35.13,69h-8.07c-0.98,0-1.95,0.23-2.84,0.68l-13.39,6.73c-2.07,1.04-3.51,3.15-3.81,5.6l-3.13,25.06 C3,113.5,5.35,115,10.54,115H42v-5.2V76.23C42,70.69,42,69,35.13,69z"/></defs><clipPath id="a"><use xlink:href="#c"/></clipPath><rect x="2" y="96.02" width="40.36" height="9.96" clip-path="url(#a)" fill="#B71C1C"/><g clip-path="url(#a)"><path d="m7.4 103.88h-7.75c-0.68 0-1.29-0.55-1.37-1.22l-0.31-2.55c-0.08-0.68 0.4-1.22 1.07-1.22h8.36c0.68 0 1.29 0.55 1.37 1.22l-0.3 2.55c0.08 0.67-0.4 1.22-1.07 1.22z" fill="#FFEE58"/></g><g opacity=".2"><path d="m35.06 71c3.18 0 4.2 0.41 4.46 0.76 0.44 0.57 0.47 2.38 0.47 4.47v36.77h-29.45c-2.28 0-3.62-0.31-4.21-0.99-0.63-0.73-0.79-2.3-0.46-4.7l3.13-25.06c0.22-1.79 1.24-3.31 2.73-4.05l13.39-6.73c0.61-0.31 1.27-0.47 1.94-0.47h7.94m0.13-2h-8.07c-0.98 0-1.95 0.23-2.84 0.68l-13.39 6.73c-2.07 1.04-3.51 3.15-3.81 5.6l-3.13 25.06c-0.89 6.43 1.46 7.93 6.65 7.93h31.46v-38.77c0-5.54 0-7.23-6.87-7.23z" fill="#424242"/></g><rect x="36.22" y="109.83" width="87.91" height="5.17" fill="#263238"/><g opacity=".2"><path d="m27.41 76.22v12.02h-15.34l0.53-4.27c0.11-0.87 0.6-1.62 1.29-2l13.52-5.75m0.92-2.47c-0.16 0-0.33 0.04-0.49 0.12l-14.8 6.3c-1.32 0.66-2.23 2.01-2.43 3.56l-0.65 5.3c-0.08 0.65 0.43 1.22 1.08 1.22h17.29c0.6 0 1.09-0.49 1.09-1.09v-14.33c-0.01-0.63-0.52-1.08-1.09-1.08z" fill="#424242"/></g><linearGradient id="b" x1="80.109" x2="80.109" y1="45.71" y2="109.61" gradientUnits="userSpaceOnUse"><stop stop-color="#EF5350" offset=".0031768"/><stop stop-color="#EA4D4A" offset=".3272"/><stop stop-color="#DC3A3A" offset=".7789"/><stop stop-color="#D32F2F" offset="1"/></linearGradient><path d="M124,109.83H36.22V48c0-2.21,1.79-4,4-4H120c2.21,0,4,1.79,4,4V109.83z" fill="url(#b)"/><g opacity=".2"><path d="m120 47.05c0.52 0 0.95 0.43 0.95 0.95v58.78h-81.68v-58.78c0-0.52 0.43-0.95 0.95-0.95h79.78m0-3.05h-79.78c-2.21 0-4 1.79-4 4v61.83h87.78v-61.83c0-2.21-1.79-4-4-4z" fill="#424242"/></g><circle cx="111.65" cy="115.31" r="8.65" fill="#4E342E"/><g opacity=".2"><path d="m111.65 108.66c3.67 0 6.65 2.98 6.65 6.65s-2.98 6.65-6.65 6.65-6.65-2.98-6.65-6.65 2.98-6.65 6.65-6.65m0-2c-4.78 0-8.65 3.87-8.65 8.65s3.87 8.65 8.65 8.65 8.65-3.87 8.65-8.65-3.87-8.65-8.65-8.65z" fill="#eee"/></g><circle cx="111.65" cy="115.31" r="3.48" fill="#BDBDBD"/><circle cx="22.65" cy="115.31" r="8.65" fill="#4E342E"/><g opacity=".2"><path d="m22.65 108.66c3.67 0 6.65 2.98 6.65 6.65s-2.98 6.65-6.65 6.65-6.65-2.98-6.65-6.65 2.98-6.65 6.65-6.65m0-2c-4.78 0-8.65 3.87-8.65 8.65s3.87 8.65 8.65 8.65 8.65-3.87 8.65-8.65-3.87-8.65-8.65-8.65z" fill="#eee"/></g><circle cx="22.65" cy="115.31" r="3.48" fill="#BDBDBD"/><circle cx="53.65" cy="115.31" r="8.65" fill="#4E342E"/><g opacity=".2"><path d="m53.65 108.66c3.67 0 6.65 2.98 6.65 6.65s-2.98 6.65-6.65 6.65-6.65-2.98-6.65-6.65 2.98-6.65 6.65-6.65m0-2c-4.78 0-8.65 3.87-8.65 8.65s3.87 8.65 8.65 8.65 8.65-3.87 8.65-8.65-3.87-8.65-8.65-8.65z" fill="#eee"/></g><circle cx="53.65" cy="115.31" r="3.48" fill="#BDBDBD"/><circle cx="71.65" cy="115.31" r="8.65" fill="#4E342E"/><g opacity=".2"><path d="m71.65 108.66c3.67 0 6.65 2.98 6.65 6.65s-2.98 6.65-6.65 6.65-6.65-2.98-6.65-6.65 2.98-6.65 6.65-6.65m0-2c-4.78 0-8.65 3.87-8.65 8.65s3.87 8.65 8.65 8.65 8.65-3.87 8.65-8.65-3.87-8.65-8.65-8.65z" fill="#eee"/></g><circle cx="71.65" cy="115.31" r="3.48" fill="#BDBDBD"/><line x1="50.5" x2="50.5" y1="50" y2="104" fill="none" stroke="#E57373" stroke-linecap="round" stroke-linejoin="round" stroke-miterlimit="10" stroke-width="3"/><line x1="64.5" x2="64.5" y1="50" y2="104" fill="none" stroke="#E57373" stroke-linecap="round" stroke-linejoin="round" stroke-miterlimit="10" stroke-width="3"/><line x1="79.5" x2="79.5" y1="50" y2="104" fill="none" stroke="#E57373" stroke-linecap="round" stroke-linejoin="round" stroke-miterlimit="10" stroke-width="3"/><line x1="93.5" x2="93.5" y1="50" y2="104" fill="none" stroke="#E57373" stroke-linecap="round" stroke-linejoin="round" stroke-miterlimit="10" stroke-width="3"/><line x1="108.5" x2="108.5" y1="50" y2="104" fill="none" stroke="#E57373" stroke-linecap="round" stroke-linejoin="round" stroke-miterlimit="10" stroke-width="3"/></svg>

<svg width="128" height="128" style="enable-background:new 0 0 128 128;" xmlns="http://www.w3.org/2000/svg" xmlns:xlink="http://www.w3.org/1999/xlink">
  <g>
    <linearGradient id="SVGID_1_" gradientUnits="userSpaceOnUse" x1="22.8537" x2="22.8537" y1="70.75" y2="115.0452">
      <stop offset="3.176769e-03" style="stop-color:#EF5350"/>
      <stop offset="0.3272" style="stop-color:#EA4D4A"/>
      <stop offset="0.7789" style="stop-color:#DC3A3A"/>
      <stop offset="1" style="stop-color:#D32F2F"/>
    </linearGradient>
    <path d="M35.13,69h-8.07c-0.98,0-1.95,0.23-2.84,0.68l-13.39,6.73c-2.07,1.04-3.51,3.15-3.81,5.6 l-3.13,25.06C3,113.5,5.35,115,10.54,115H42v-5.2V76.23C42,70.69,42,69,35.13,69z" style="fill:url(#SVGID_1_);"/>
  </g>
  <path d="M29.41,74.83c0-0.81-0.85-1.33-1.57-0.97l-14.8,6.3c-1.32,0.66-2.23,2.01-2.43,3.56l-0.65,5.3 c-0.08,0.65,0.43,1.22,1.08,1.22h17.29c0.6,0,1.09-0.49,1.09-1.09V74.83z" style="fill:#546E7A;"/>
  <g>
    <defs>
      <path id="SVGID_2_" d="M35.13,69h-8.07c-0.98,0-1.95,0.23-2.84,0.68l-13.39,6.73c-2.07,1.04-3.51,3.15-3.81,5.6l-3.13,25.06 C3,113.5,5.35,115,10.54,115H42v-5.2V76.23C42,70.69,42,69,35.13,69z"/>
    </defs>
    <clipPath id="SVGID_3_">
      <use style="overflow:visible;" xlink:href="#SVGID_2_"/>
    </clipPath>
    <rect height="9.96" style="clip-path:url(#SVGID_3_);fill:#B71C1C;" width="40.36" x="2" y="96.02"/>
    <g style="clip-path:url(#SVGID_3_);">
      <path d="M7.4,103.88h-7.75c-0.68,0-1.29-0.55-1.37-1.22l-0.31-2.55c-0.08-0.68,0.4-1.22,1.07-1.22H7.4 c0.68,0,1.29,0.55,1.37,1.22l-0.3,2.55C8.55,103.33,8.07,103.88,7.4,103.88z" style="fill:#FFEE58;"/>
    </g>
  </g>
  <g style="opacity:0.2;">
    <path d="M35.06,71c3.18,0,4.2,0.41,4.46,0.76c0.44,0.57,0.47,2.38,0.47,4.47v33.57v3.2H10.54 c-2.28,0-3.62-0.31-4.21-0.99c-0.63-0.73-0.79-2.3-0.46-4.7L9,82.25c0.22-1.79,1.24-3.31,2.73-4.05l13.39-6.73 c0.61-0.31,1.27-0.47,1.94-0.47H35 M35.13,69h-8.07c-0.98,0-1.95,0.23-2.84,0.68l-13.39,6.73c-2.07,1.04-3.51,3.15-3.81,5.6 l-3.13,25.06C3,113.5,5.35,115,10.54,115H42v-5.2V76.23C42,70.69,42,69,35.13,69L35.13,69z" style="fill:#424242;"/>
  </g>
  <rect height="5.17" style="fill:#263238;" width="87.91" x="36.22" y="109.83"/>
  <g style="opacity:0.2;">
    <path d="M27.41,76.22v12.02H12.07l0.53-4.27c0.11-0.87,0.6-1.62,1.29-2L27.41,76.22 M28.33,73.75 c-0.16,0-0.33,0.04-0.49,0.12l-14.8,6.3c-1.32,0.66-2.23,2.01-2.43,3.56l-0.65,5.3c-0.08,0.65,0.43,1.22,1.08,1.22h17.29 c0.6,0,1.09-0.49,1.09-1.09V74.83C29.41,74.2,28.9,73.75,28.33,73.75L28.33,73.75z" style="fill:#424242;"/>
  </g>
  <linearGradient id="SVGID_4_" gradientUnits="userSpaceOnUse" x1="80.1092" x2="80.1092" y1="45.7102" y2="109.6114">
    <stop offset="3.176769e-03" style="stop-color:#EF5350"/>
    <stop offset="0.3272" style="stop-color:#EA4D4A"/>
    <stop offset="0.7789" style="stop-color:#DC3A3A"/>
    <stop offset="1" style="stop-color:#D32F2F"/>
  </linearGradient>
  <path d="M124,109.83H36.22V48c0-2.21,1.79-4,4-4H120c2.21,0,4,1.79,4,4V109.83z" style="fill:url(#SVGID_4_);"/>
  <g style="opacity:0.2;">
    <path d="M120,47.05c0.52,0,0.95,0.43,0.95,0.95v58.78H39.27V48c0-0.52,0.43-0.95,0.95-0.95H120 M120,44 H40.22c-2.21,0-4,1.79-4,4v61.83H124V48C124,45.79,122.21,44,120,44L120,44z" style="fill:#424242;"/>
  </g>
  <g>
    <g>
      <circle cx="111.65" cy="115.31" r="8.65" style="fill:#4E342E;"/>
      <g style="opacity:0.2;">
        <path d="M111.65,108.66c3.67,0,6.65,2.98,6.65,6.65s-2.98,6.65-6.65,6.65s-6.65-2.98-6.65-6.65 S107.98,108.66,111.65,108.66 M111.65,106.66c-4.78,0-8.65,3.87-8.65,8.65s3.87,8.65,8.65,8.65s8.65-3.87,8.65-8.65 S116.43,106.66,111.65,106.66L111.65,106.66z" style="fill:#EEEEEE;"/>
      </g>
    </g>
    <circle cx="111.65" cy="115.31" r="3.48" style="fill:#BDBDBD;"/>
  </g>
  <g>
    <g>
      <circle cx="22.65" cy="115.31" r="8.65" style="fill:#4E342E;"/>
      <g style="opacity:0.2;">
        <path d="M22.65,108.66c3.67,0,6.65,2.98,6.65,6.65s-2.98,6.65-6.65,6.65S16,118.98,16,115.31 S18.98,108.66,22.65,108.66 M22.65,106.66c-4.78,0-8.65,3.87-8.65,8.65s3.87,8.65,8.65,8.65s8.65-3.87,8.65-8.65 S27.43,106.66,22.65,106.66L22.65,106.66z" style="fill:#EEEEEE;"/>
      </g>
    </g>
    <circle cx="22.65" cy="115.31" r="3.48" style="fill:#BDBDBD;"/>
  </g>
  <g>
    <g>
      <circle cx="53.65" cy="115.31" r="8.65" style="fill:#4E342E;"/>
      <g style="opacity:0.2;">
        <path d="M53.65,108.66c3.67,0,6.65,2.98,6.65,6.65s-2.98,6.65-6.65,6.65S47,118.98,47,115.31 S49.98,108.66,53.65,108.66 M53.65,106.66c-4.78,0-8.65,3.87-8.65,8.65s3.87,8.65,8.65,8.65s8.65-3.87,8.65-8.65 S58.43,106.66,53.65,106.66L53.65,106.66z" style="fill:#EEEEEE;"/>
      </g>
    </g>
    <circle cx="53.65" cy="115.31" r="3.48" style="fill:#BDBDBD;"/>
  </g>
  <g>
    <g>
      <circle cx="71.65" cy="115.31" r="8.65" style="fill:#4E342E;"/>
      <g style="opacity:0.2;">
        <path d="M71.65,108.66c3.67,0,6.65,2.98,6.65,6.65s-2.98,6.65-6.65,6.65S65,118.98,65,115.31 S67.98,108.66,71.65,108.66 M71.65,106.66c-4.78,0-8.65,3.87-8.65,8.65s3.87,8.65,8.65,8.65s8.65-3.87,8.65-8.65 S76.43,106.66,71.65,106.66L71.65,106.66z" style="fill:#EEEEEE;"/>
      </g>
    </g>
    <circle cx="71.65" cy="115.31" r="3.48" style="fill:#BDBDBD;"/>
  </g>
  <line style="fill:none;stroke:#E57373;stroke-width:3;stroke-linecap:round;stroke-linejoin:round;stroke-miterlimit:10;" x1="50.5" x2="50.5" y1="50" y2="104"/>
  <line style="fill:none;stroke:#E57373;stroke-width:3;stroke-linecap:round;stroke-linejoin:round;stroke-miterlimit:10;" x1="64.5" x2="64.5" y1="50" y2="104"/>
  <line style="fill:none;stroke:#E57373;stroke-width:3;stroke-linecap:round;stroke-linejoin:round;stroke-miterlimit:10;" x1="79.5" x2="79.5" y1="50" y2="104"/>
  <line style="fill:none;stroke:#E57373;stroke-width:3;stroke-linecap:round;stroke-linejoin:round;stroke-miterlimit:10;" x1="93.5" x2="93.5" y1="50" y2="104"/>
  <line style="fill:none;stroke:#E57373;stroke-width:3;stroke-linecap:round;stroke-linejoin:round;stroke-miterlimit:10;" x1="108.5" x2="108.5" y1="50" y2="104"/>
</svg>
